X:061
L:1/16
M:2/4
K:C
EcBc EG^FG | CEGc EGce | g^fag =fedc | BGAB c2 ::
(cd) | e2g2 c'2a2 | ((3gag) ((3fed) c2de | fdBG ^FGBd | fedc BdG2 |
EGcG AFAc | BGBd cBAG | defd BGAB | c2c2 c2 :|]

